icons/folder-plus.svg

<svg xmlns="http://www.w3.org/2000/svg" width="24" height="24" viewBox="0 0 24 24">
  <path d="M11,4 L13,6 L20,6 C21.1045695,6 22,6.8954305 22,8 L22,18 C22,19.1045695 21.1045695,20 20,20 L4,20 C2.8954305,20 2,19.1045695 2,18 L2,6 C2,4.8954305 2.8954305,4 4,4 L11,4 Z M12,9 C11.4477153,9 11,9.44771525 11,10 L11,10 L10.999,12 L9,12 L8.88337887,12.0067277 C8.38604019,12.0644928 8,12.4871642 8,13 C8,13.5522847 8.44771525,14 9,14 L9,14 L10.999,14 L11,16 L11.0067277,16.1166211 C11.0644928,16.6139598 11.4871642,17 12,17 C12.5522847,17 13,16.5522847 13,16 L13,16 L12.999,14 L15,14 L15.1166211,13.9932723 C15.6139598,13.9355072 16,13.5128358 16,13 C16,12.4477153 15.5522847,12 15,12 L15,12 L12.999,12 L13,10 L12.9932723,9.88337887 C12.9355072,9.38604019 12.5128358,9 12,9 Z"/>
</svg>

<svg xmlns="http://www.w3.org/2000/svg" viewBox="0 0 24 24">
  <path d="m11 4 2 2h7a2 2 0 0 1 2 2v10a2 2 0 0 1-2 2H4a2 2 0 0 1-2-2V6c0-1.1.9-2 2-2h7zm1 5a1 1 0 0 0-1 1v2H8.88A1 1 0 0 0 9 14h2v2.12a1 1 0 0 0 2-.12v-2h2.12a1 1 0 0 0-.12-2h-2V9.88A1 1 0 0 0 12 9z"/>
</svg>
